X:1
T:Standin In The Need of Prayer
T:I'm a-Rolling
T:Copyright 1918 by Homer A. Rodeheaver
T:Rodeheaver's Plantation Melodies
T:Rodeheaver's Plantation Melodies
Z:Rodeheaver's Plantation Melodies
%%score [ 1 2 3 4 ]
L:1/8
M:4/4
K:F
V:1 treble nm="Soprano" snm="S."
V:2 treble nm="Alto" snm="A."
V:3 bass nm="Tenor" snm="T."
V:4 bass nm="Bass" snm="B."
V:1
 c4 A>B c>c | d4 c4 | B4 G>A B>B | c2 c>B A4 | c4 A>B c>c | d4 c2 f>d | c>d c>B A>A G>G | %7
 (F3 D C2) |"^CHORUS" C>D | F4 A2 F>F | A4 c2 C>D | F2 FD FF F2 | F2 F2 D<C C>D | F4 A2 F>F | %14
 (A3 B) c2 B>B | (A3 F) G2 G2 | F6 z2 :| %17
V:2
 c4 A>B c>c | d4 c4 | B4 G>A B>B | c2 c>B A4 | c4 A>B c>c | d4 c2 f>d | c>d c>B A>A G>G | %7
w: O broth- ers, won't you|help me,|O broth- ers, won't you|help me to pray?|O broth- ers, won't you|help me, Won't you|help me in the serv- ice of the|
 (F3 D C2) | C>D | F4 F2 F>F | F4 F2 C>D | F2 FD FF F2 | F2 F2 D<C C>D | F4 F2 F>F | F4 F2 F>F | %15
w: Lord?- * *|I'm a|roll- ing, I'm a-|roll- ing, I'm a-|roll- ing- * thro' an un-|friend- ly world;- * I'm a-|roll- ing, I'm a-|roll- ing thro' an|
 F4 E2 E2 | F6 z2 :| %17
w: un- friend- ly|world.|
V:3
 C4 A,>B, C>C | D4 C4 | B,4 G,>A, B,>B, | C2 C>B, A,4 | C4 A,>B, C>C | D4 C2 F>D | %6
 C>D C>B, A,>A, G,>G, | (F,3 D, C,2) | C,>D, | A,4 C2 F,>F, | C4 C2 C,>D, | F,2 F,D, F,F, F,2 | %12
 F,2 F,2 D,<C, C,>D, | F,4 A,2 F,>F, | C4 C2 D>D | (C3 A,) B,2 B,2 | A,6 z2 :| %17
V:4
 C4 A,>B, C>C | D4 C4 | B,4 G,>A, B,>B, | C2 C>B, A,4 | C4 A,>B, C>C | D4 C2 F>D | %6
 C>D C>B, A,>A, G,>G, | (F,3 D, C,2) | C,>D, | (C,2 D,2) F,2 F,>F, | (F,2 G,2) A,2 C,>D, | %11
 F,2 F,D, F,F, F,2 | F,2 F,2 D,<C, C,>D, | %13
"_1. O brothers, won't you help me to pray?\n\n2. O sisters, won't you help me to pray?\n\n3. O preachers, won't you help me to fight?" (C,2 D,2) F,2 F,>F, | %14
 (F,2 G,2) A,2 B,,>B,, | C,4 C,2 C,2 | F,6 z2 :| %17

